X: 1
T: Mary-Ann's
M: 3/4
L: 1/8
R: mazurka
K: Dmaj
|d2 d2 cd|e2 d2 c2|B2 Bc dB|A2 F2 A2|
|d2 d2 cd|e2 d2 c2|B2 c2 e2|1d3 A FA:|2d3 e fd||
|A2 AG FA|B2 B2 cd|e2 d2 c2|B2 A2 fd|
|A2 AG FA|B3 B cB|A2 c2 e2|1d3 e fd:|2d3 A FA||
